X:1
T:[ID 9-40]
T:[ID 9-40]
T:Bezeichnung standardisiert: Walzer Waltzer
T:Urheber unbekannt Datum in der hier transkribierten schriftlichen Quelle: 1796
C:Urheber unbekannt
C:Datum in der hier transkribierten schriftlichen Quelle: 1796
%%score ( 1 2 )
L:1/8
M:3/4
K:A
V:1 treble 
V:2 treble 
V:1
 e4 c2 | a2 ag a2 | e4 c2 | B2 BA B2 | c2 (ed)cd | e2 f2 g2 | a2 d2 c2 | c4 B2 :| %8
 !fermata!E2 GB d2 | c2 e2 a2 | (g2 b2) d2 | c4 B2 | e4 c2 | a2 ag a2 | b2 a2 g2 | a4 z2 :| %16
[K:D] !fermata!d4 z2 | A4 FA | G2 (GF)(GF) | E4 z2 | e4 z2 | c4 A2 |"^1)" x2 BABA | A4 z2 :| %24
V:2
 x6 | x6 | x6 | x6 | x6 | x6 | x6 | x6 :| x6 | x6 | x6 | x6 | x6 | x6 | x6 | x6 :|[K:D] x6 | x6 | %18
 x6 | x6 | x6 | x6 | d2 dcdc | d4 x2 :| %24

